creators/img/googleplay.svg

<svg width="33" height="33" viewBox="0 0 33 33" fill="none" xmlns="http://www.w3.org/2000/svg">
<path d="M16.5 33C25.6127 33 33 25.6127 33 16.5C33 7.3873 25.6127 0 16.5 0C7.3873 0 0 7.3873 0 16.5C0 25.6127 7.3873 33 16.5 33Z" fill="white"/>
<path d="M23.1307 19.8332C25.4932 18.5234 27.2975 17.523 27.4617 17.4319C27.9513 17.1605 28.4642 16.4678 27.4617 15.9141C27.1394 15.7358 25.3836 14.766 23.1279 13.5195L20.0254 16.6861L23.1307 19.8332Z" fill="#FFE300"/>
<path d="M20.0266 16.6836L10.1035 26.8113C10.3276 26.8401 10.5971 26.78 10.9072 26.6081C11.549 26.2523 18.4417 22.4307 23.132 19.8303L20.0266 16.6836Z" fill="#FF4E54"/>
<path d="M20.0259 16.6855L23.1284 13.5189C23.1284 13.5189 11.5968 7.14637 10.9064 6.76489C10.6411 6.61821 10.3518 6.56703 10.0957 6.62479L20.0259 16.6855Z" fill="#00F085"/>
<path d="M20.0262 16.6856L10.0959 6.625C9.68575 6.71767 9.34961 7.07724 9.34961 7.79998V25.6062C9.34961 26.2869 9.61404 26.7656 10.103 26.8133L20.0262 16.6856Z" fill="#00E0FF"/>
</svg>

<svg width="33" height="33" fill="none" xmlns="http://www.w3.org/2000/svg"><path d="M16.5 33C25.613 33 33 25.613 33 16.5S25.613 0 16.5 0 0 7.387 0 16.5 7.387 33 16.5 33z" fill="#fff"/><path d="M23.13 19.833l4.332-2.401c.49-.271 1.002-.964 0-1.518l-4.334-2.394-3.103 3.166 3.106 3.147z" fill="#FFE300"/><path d="M20.027 16.684L10.103 26.81c.225.03.494-.031.804-.203l12.225-6.778-3.105-3.146z" fill="#FF4E54"/><path d="M20.026 16.686l3.102-3.167-12.222-6.754a1.165 1.165 0 00-.81-.14l9.93 10.06z" fill="#00F085"/><path d="M20.026 16.686l-9.93-10.061c-.41.093-.746.452-.746 1.175v17.806c0 .68.264 1.16.753 1.207l9.923-10.127z" fill="#00E0FF"/></svg>
